icons/LinkHorizontal.svg

<svg width="24" height="24" viewBox="0 0 24 24" fill="none" xmlns="http://www.w3.org/2000/svg">
<path fill-rule="evenodd" clip-rule="evenodd" d="M2.25,12c0,-3.17564 2.57436,-5.75 5.75,-5.75h1.5c0.41421,0 0.75,0.33579 0.75,0.75c0,0.41421 -0.33579,0.75 -0.75,0.75h-1.5c-2.34721,0 -4.25,1.90279 -4.25,4.25c0,2.3472 1.90279,4.25 4.25,4.25h1.5c0.41421,0 0.75,0.3358 0.75,0.75c0,0.4142 -0.33579,0.75 -0.75,0.75h-1.5c-3.17564,0 -5.75,-2.5744 -5.75,-5.75zM7.25,12c0,-0.4142 0.33579,-0.75 0.75,-0.75h8c0.4142,0 0.75,0.3358 0.75,0.75c0,0.4142 -0.3358,0.75 -0.75,0.75h-8c-0.41421,0 -0.75,-0.3358 -0.75,-0.75zM16,6.25c3.1756,0 5.75,2.57436 5.75,5.75c0,3.1756 -2.5744,5.75 -5.75,5.75h-1.5c-0.4142,0 -0.75,-0.3358 -0.75,-0.75c0,-0.4142 0.3358,-0.75 0.75,-0.75h1.5c2.3472,0 4.25,-1.9028 4.25,-4.25c0,-2.34721 -1.9028,-4.25 -4.25,-4.25h-1.5c-0.4142,0 -0.75,-0.33579 -0.75,-0.75c0,-0.41421 0.3358,-0.75 0.75,-0.75z" fill="#002B51"/>
</svg>

<svg width="24" height="24" viewBox="0 0 24 24" fill="none" xmlns="http://www.w3.org/2000/svg">
<path fill-rule="evenodd" clip-rule="evenodd" d="M2.25 12C2.25 8.82436 4.82436 6.25 8 6.25H9.5C9.91421 6.25 10.25 6.58579 10.25 7C10.25 7.41421 9.91421 7.75 9.5 7.75H8C5.65279 7.75 3.75 9.65279 3.75 12C3.75 14.3472 5.65279 16.25 8 16.25H9.5C9.91421 16.25 10.25 16.5858 10.25 17C10.25 17.4142 9.91421 17.75 9.5 17.75H8C4.82436 17.75 2.25 15.1756 2.25 12ZM7.25 12C7.25 11.5858 7.58579 11.25 8 11.25H16C16.4142 11.25 16.75 11.5858 16.75 12C16.75 12.4142 16.4142 12.75 16 12.75H8C7.58579 12.75 7.25 12.4142 7.25 12ZM14.5 6.25C14.0858 6.25 13.75 6.58579 13.75 7C13.75 7.41421 14.0858 7.75 14.5 7.75H16C18.3472 7.75 20.25 9.65279 20.25 12C20.25 14.3472 18.3472 16.25 16 16.25H14.5C14.0858 16.25 13.75 16.5858 13.75 17C13.75 17.4142 14.0858 17.75 14.5 17.75H16C19.1756 17.75 21.75 15.1756 21.75 12C21.75 8.82436 19.1756 6.25 16 6.25H14.5Z" fill="#002B51"/>
</svg>
